**kern	**kern	**dynam
*part1	*part1	*part1
*staff2	*staff1	*
*I"Piano	*	*
*clefF4	*clefG2	*
*k[b-e-a-d-]	*k[b-e-a-d-]	*
=1	=1	=1
4AA-' 4E-	4A-' 4c	.
8AA-'L	8A-'L	.
8GG'J	8G'J	.
4BB-'	4B-'	.
4AA-'	4A-'	.
*	*clefF4	*
=	=	=
4GG'	4G'	.
8FF'L	8F'L	.
8EEn'J	8En'J	.
4FF'	4F'	.
4DD-'	4D-'	.
=	=	=
4CC'	4C'	pp
4r	4C' 4c	.
4DD-'	4r	.
4r	4D-' 4d-	.
=	=	=
4CC'	4r	.
4r	4C' 4c	.
4DD- 4D-	4r	.
4r	4F 4Bn 4f	.
*	*clefG2	*
=	=	=
4CC 4C	4r	.
4r	4G 4c 4en	.
4BBBn^ 4BBn	4r	.
4r	4A- 4dn 4f	.
=	=	=
4CC 4C	4r	.
4r	4G 4c 4en	.
(4C	(4c	.
4Dn	4dn	.
=	=	=
8E-X)	8e-X)	.
8r	8r	.
4r	4E- 4e-	.
4FF-X	4r	.
4r	4F-X 4f-X	.
=	=	=
*-	*-	*-
!!!system-decoration: {(s1,s2)}
